X: 30135
T: Old Bush, The
R: reel
M: 4/4
K: Dmixolydian
|:A2 GA cA A2|d^cde fde=c|A2 GA cA A2|cded cAdc|
A2 GA cA A2|d^cde f2fg|afge fded|1 cded cAdc:|2 cded cA A2||
|:eg g2 edcd|efge c2cd|egg2 agge|cded cAA2|
egg2 agge|f2fe defg|afge fded|1 cded cAA2:|2 cded cAdc||

